.local/share/icons/Gruvbox-Plus-Dark/actions/16/show-guides.svg

<svg xmlns="http://www.w3.org/2000/svg" width="16" height="16" viewBox="0 0 16 16">
 <defs>
  <style id="current-color-scheme" type="text/css">
   .ColorScheme-Text { color:#ebdbb2; } .ColorScheme-Highlight { color:#458588; }
  </style>
 </defs>
 <path style="fill:currentColor" class="ColorScheme-Text" d="M 3 2.0292969 L 3 3.0292969 L 4 3.0292969 L 4 2.0292969 L 3 2.0292969 z M 3 4.0292969 L 3 5.0292969 L 4 5.0292969 L 4 4.0292969 L 3 4.0292969 z M 3 6.0292969 L 3 7.0292969 L 4 7.0292969 L 4 6.0292969 L 3 6.0292969 z M 3 8.0292969 L 3 9.0292969 L 4 9.0292969 L 4 8.0292969 L 3 8.0292969 z M 3 10.029297 L 3 11.029297 L 4 11.029297 L 4 10.029297 L 3 10.029297 z M 1 12.029297 L 1 13.029297 L 2 13.029297 L 2 12.029297 L 1 12.029297 z M 3 12.029297 L 3 13.029297 L 4 13.029297 L 4 12.029297 L 3 12.029297 z M 5 12.029297 L 5 13.029297 L 6 13.029297 L 6 12.029297 L 5 12.029297 z M 7 12.029297 L 7 13.029297 L 8 13.029297 L 8 12.029297 L 7 12.029297 z M 9 12.029297 L 9 13.029297 L 10 13.029297 L 10 12.029297 L 9 12.029297 z M 11 12.029297 L 11 13.029297 L 12 13.029297 L 12 12.029297 L 11 12.029297 z M 13 12.029297 L 13 13.029297 L 14 13.029297 L 14 12.029297 L 13 12.029297 z M 3 14.029297 L 3 15.029297 L 4 15.029297 L 4 14.029297 L 3 14.029297 z"/>
</svg>

<svg width="16" height="16" version="1.1" xmlns="http://www.w3.org/2000/svg">
  <defs>
    <style id="current-color-scheme" type="text/css">.ColorScheme-Text { color:#ebdbb2; } .ColorScheme-Highlight { color:#458588; }</style>
  </defs>
  <path class="ColorScheme-Text" d="m3 2v1h1v-1zm0 2v1h1v-1zm0 2v1h1v-1zm0 2v1h1v-1zm0 2v1h1v-1zm-2 2v1h1v-1zm2 0v1h1v-1zm2 0v1h1v-1zm2 0v1h1v-1zm2 0v1h1v-1zm2 0v1h1v-1zm2 0v1h1v-1zm-10 2v1h1v-1z" fill="currentColor"/>
</svg>
